svgs/regular/messages-dollar.svg

<svg xmlns="http://www.w3.org/2000/svg" viewBox="0 0 640 512"><!--! Font Awesome Pro 6.0.0-alpha3 by @fontawesome - https://fontawesome.com License - https://fontawesome.com/license (Commercial License) --><path d="M212.7 143.5L207.1 142.1c-20.32-5.973-19.83-8.732-19.18-12.56c1.178-6.695 14.22-8.33 25.94-6.535c4.795 .7227 10.06 2.41 15.08 4.152c8.906 3.08 18.71-1.662 21.82-10.58C254.7 107.7 250 97.88 241.1 94.78C234.9 92.65 229.8 91.28 225.1 90.26v-9.113C225.1 71.69 217.5 64 208 64S190.9 71.69 190.9 81.14v8.564C171.6 93.79 158.1 105.8 155 123.7c-6.348 36.72 28.45 46.93 43.3 51.29l4.982 1.447C228.4 183.7 227.1 186.1 227.2 190.4c-1.18 6.697-14.22 8.357-25.98 6.535c-5.947-.8828-13.55-3.615-20.28-6.025L177.1 189.5C168.2 186.5 158.4 191.1 155.3 200C152.1 208.9 156.8 218.7 165.7 221.9l3.656 1.287c6.648 2.391 14.04 4.791 21.48 6.438v9.232C190.9 248.3 198.5 256 208 256s17.14-7.688 17.14-17.14V230.1c19.17-4.109 32.75-15.88 35.85-33.8C267.4 159.2 231.8 148.1 212.7 143.5zM576 128H448v128c0 52.94-43.06 95.99-96 95.99l-96 .0013v31.98c0 35.25 28.75 63.1 63.1 63.1l125.8-.0073l82.75 62.12C534.9 514.8 544 510.2 544 502.2v-54.24h32c35.25 0 64-28.75 64-63.1V191.1C640 156.7 611.3 128 576 128zM416 256V63.1C416 28.75 387.3 0 352 0H64C28.75 0 0 28.75 0 63.1v192C0 291.3 28.75 320 64 320l32 .0106V372C96 379.1 101.8 384 108 384c2.375 0 4.875-.75 7.125-2.375L224 320l128-.075C387.3 319.9 416 291.3 416 256zM211.4 272L144 310.1V272H64C55.25 272 48 264.8 48 256V64c0-8.75 7.25-16 16-16h288c8.75 0 16 7.25 16 16v192c0 8.75-7.25 16-16 16H211.4z"/></svg>

<svg xmlns="http://www.w3.org/2000/svg" viewBox="0 0 640 512"><!-- Font Awesome Pro 6.0.0-alpha2 by @fontawesome - https://fontawesome.com License - https://fontawesome.com/license (Commercial License) --><path d="M212.715 143.5L207.961 142.133C187.645 136.16 188.127 133.4 188.783 129.57C189.961 122.875 203.006 121.24 214.725 123.035C219.52 123.758 224.783 125.445 229.805 127.188C238.711 130.268 248.514 125.525 251.621 116.607C254.729 107.66 250.002 97.883 241.055 94.775C234.867 92.646 229.818 91.281 225.145 90.256V81.143C225.145 71.688 217.471 64 208.002 64S190.857 71.688 190.857 81.143V89.707C171.639 93.795 158.123 105.785 155.006 123.732C148.658 160.455 183.451 170.66 198.305 175.025L203.287 176.473C228.385 183.65 227.971 186.062 227.221 190.428C226.041 197.125 212.996 198.785 201.238 196.963C195.291 196.08 187.684 193.348 180.961 190.937L177.131 189.545C168.211 186.463 158.42 191.098 155.26 200.018C152.113 208.938 156.787 218.74 165.721 221.9L169.377 223.188C176.025 225.578 183.416 227.979 190.857 229.625V238.857C190.857 248.312 198.533 256 208.002 256S225.145 248.312 225.145 238.857V230.068C244.311 225.959 257.891 214.187 260.996 196.268C267.412 159.17 231.826 148.963 212.715 143.5ZM576 128H448V256C448 308.938 404.938 352 352 352H256V383.969C256 419.215 284.75 447.963 320 447.963H445.75L528.5 510.082C534.875 514.832 544 510.207 544 502.209V447.963H576C611.25 447.963 640 419.215 640 383.969V191.994C640 156.748 611.25 128 576 128ZM416 256V64C416 28.75 387.25 0 352 0H64C28.75 0 0 28.75 0 64V256C0 291.25 28.75 320 64 320H96V372C96 379.125 101.75 384 108 384C110.375 384 112.875 383.25 115.125 381.625L224 320H352C387.25 320 416 291.25 416 256ZM211.375 272L200.375 278.25L144 310.125V272H64C55.25 272 48 264.75 48 256V64C48 55.25 55.25 48 64 48H352C360.75 48 368 55.25 368 64V256C368 264.75 360.75 272 352 272H211.375Z"/></svg>
